src/lib/packages/icons/src/assets/line/baseball-bat-ball.svg

<svg width="24" height="24" viewBox="0 0 24 24" fill="none" xmlns="http://www.w3.org/2000/svg">
<path d="M21.75 5.72991C21.79 4.79991 21.4401 3.87992 20.7801 3.21992C20.1201 2.55992 19.22 2.20991 18.27 2.24991C17.34 2.28991 16.46 2.72991 15.87 3.44991L7.91 12.9099L4.59005 16.8499C3.97005 16.6799 3.28 16.8299 2.79 17.3199C2.07 18.0399 2.07 19.2099 2.79 19.9299L4.07003 21.2099C4.43003 21.5699 4.90003 21.7499 5.38003 21.7499C5.86003 21.7499 6.33002 21.5699 6.69002 21.2099C7.18002 20.7199 7.33005 20.0299 7.15005 19.4099L20.55 8.12992C21.27 7.53992 21.71 6.65991 21.75 5.72991ZM5.82003 17.7299L8.50002 14.5499L9.46004 15.5099L6.28005 18.1899L5.82003 17.7299ZM5.63003 20.1499C5.49003 20.2899 5.27004 20.2899 5.14004 20.1499L3.86001 18.8699C3.72001 18.7299 3.72001 18.5099 3.86001 18.3799C3.93001 18.3099 4.02001 18.2799 4.11001 18.2799C4.20001 18.2799 4.29001 18.3099 4.36001 18.3799L5.64004 19.6599C5.78004 19.7999 5.78004 20.0199 5.64004 20.1499H5.63003ZM19.59 6.97991L10.61 14.5399L9.46999 13.3999L17.0301 4.40992C17.3601 4.00992 17.83 3.77991 18.35 3.74991C18.88 3.71991 19.36 3.90991 19.72 4.27991C20.09 4.64991 20.28 5.13991 20.25 5.64991C20.23 6.16991 19.99 6.63992 19.58 6.96992L19.59 6.97991ZM6.51003 8.74991C8.30003 8.74991 9.76003 7.28991 9.76003 5.49991C9.76003 3.70991 8.30003 2.24991 6.51003 2.24991C4.72003 2.24991 3.26003 3.70991 3.26003 5.49991C3.26003 7.28991 4.72003 8.74991 6.51003 8.74991ZM6.51003 3.74991C7.47003 3.74991 8.26003 4.53991 8.26003 5.49991C8.26003 6.45991 7.47003 7.24991 6.51003 7.24991C5.55003 7.24991 4.76003 6.45991 4.76003 5.49991C4.76003 4.53991 5.55003 3.74991 6.51003 3.74991Z" fill="currentColor"/>
</svg>

<svg xmlns="http://www.w3.org/2000/svg" width="24" height="24" fill="none"><path fill="currentColor" d="M21.75 5.73c.04-.93-.31-1.85-.97-2.51a3.329 3.329 0 0 0-2.51-.97 3.3 3.3 0 0 0-2.4 1.2l-7.96 9.46-3.32 3.94a1.844 1.844 0 0 0-1.8 3.08l1.28 1.28c.36.36.83.54 1.31.54.48 0 .95-.18 1.31-.54.49-.49.64-1.18.46-1.8l13.4-11.28a3.3 3.3 0 0 0 1.2-2.4Zm-15.93 12 2.68-3.18.96.96-3.18 2.68-.46-.46Zm-.19 2.42c-.14.14-.36.14-.49 0l-1.28-1.28a.338.338 0 0 1 0-.49c.07-.07.16-.1.25-.1s.18.03.25.1l1.28 1.28c.14.14.14.36 0 .49h-.01ZM19.59 6.98l-8.98 7.56-1.14-1.14 7.56-8.99c.33-.4.8-.63 1.32-.66.53-.03 1.01.16 1.37.53.37.37.56.86.53 1.37-.02.52-.26.99-.67 1.32l.01.01ZM6.51 8.75c1.79 0 3.25-1.46 3.25-3.25S8.3 2.25 6.51 2.25 3.26 3.71 3.26 5.5s1.46 3.25 3.25 3.25Zm0-5c.96 0 1.75.79 1.75 1.75s-.79 1.75-1.75 1.75-1.75-.79-1.75-1.75.79-1.75 1.75-1.75Z"/></svg>
